X: 26
T: THE PRATIES ARE DUG
R: jig
Z: 2006 John Chambers <jc@trillian.mit.edu>
B: "Rinnci na h-\'Eireann" Elizabeth Burchenal, ed. G.Schirmer (1925) p.134
M: 6/8
L: 1/8
%Q: 3/8=126
K: D
A \
| "D"d>ef "G"edB | "D"ABG F2D | "D"(FA)A AFA | "G"Bee edB \
| "D"def "G"edB | "D"ABG FED | "D"FAA AFA | "G"Bdd "D"d2 :|
|: g \
| "D"faa agf | "G"gbb bag | "D"faa agf | "A"gfg e2g \
| "D"faa agf | "G"gbb bag | "D"fed "A"eag | "D"fdd d2 :|

%%sep 2 1 500

